X:2565
T:Visa 
T:ur Svenska Folkmelodier utgivna av C.E. Södling
B:http://www.smus.se/earkiv/fmk/browselarge.php?lang=sw&katalogid=Upprop+26e&bildnr=00034
O:Småland
N:Se även [[Musik/2463|+]]
M:3/4
L:1/8
R:Visa
Z:Nils L
K:Am
EE A2 cc | ee B2 d2 | cB (Ac) BA | ^G2 E4 ::
w:ung-er-sven med ett hur-tigt mod han sving-ar sig * u-ti la-get
EE A2 B2 | cd e2 d2 | cB Ac B^G | A2 A4 :|
w:fem-ton al-nar grö-na band det bär han u-ti sin skjort-kra-ge
(:musicend:)
(:music:)
